X: 1058
T: Hicazkâr Seyir
C: Erol Bingöl
O: Turkey
F: http://compmusic.upf.edu/node/140
N: hicazkar--seyir--devrihindi--2--erol_bingol
N: makam= hicazkar
N: form= seyir
N: usul= devrihindi = 7/4
M: 7/4
L: 1/16
K: C _1/4B _7/8e _7/8A ^f
Q: 1/4=60
%%MIDI tuningsystem comma53
f4 g4 g2=a2 _b3a g2f2 g8  | c'4 _b4 =a4 a2g4b2 a2g2 f2e2  | \
w:   |   | 
d4 e4 f4 g4 =a4 _b4 a2g2  | 
w:   | 
f2g2 =a2_b2 a2g2 f3e e2d2 d8  | c4 g4 g4 a4 g2f2 g4 f2e2  | \
w:   |   | 
d2e2 f2g2 f2e2 d3c B2c2 d8  | 
w:   | 
c4 d4 e4 f2g2 f2e2 d2e2 d2c2  | B2c2 d2e2 d2c2 B2A2 A2G2 G8  | 
w:   |   | 
|


